svgs/sharp-regular/vr-cardboard.svg

<svg xmlns="http://www.w3.org/2000/svg" viewBox="0 0 640 512"><!--! Font Awesome Pro 6.6.0 by @fontawesome - https://fontawesome.com License - https://fontawesome.com/license (Commercial License) Copyright 2024 Fonticons, Inc. --><path d="M346.8 341.7L400 448l192 0 48 0 0-48 0-288 0-48-48 0L48 64 0 64l0 48L0 400l0 48 48 0 192 0 53.2-106.3 .2-.3L304 320l32 0 10.7 21.3 .2 .3zM210.3 400L48 400l0-288 544 0 0 288-162.3 0L378.9 298.5 365.7 272 336 272l-32 0-29.7 0-13.3 26.5L210.3 400zM224 240A64 64 0 1 0 96 240a64 64 0 1 0 128 0zm256 64a64 64 0 1 0 0-128 64 64 0 1 0 0 128z"/></svg>

<svg xmlns="http://www.w3.org/2000/svg" viewBox="0 0 640 512"><!--! Font Awesome Pro 6.4.0 by @fontawesome - https://fontawesome.com License - https://fontawesome.com/license (Commercial License) Copyright 2023 Fonticons, Inc. --><path d="M346.8 341.7L400 448H592h48V400 112 64H592 48 0v48V400v48H48 240l53.2-106.3 .2-.3L304 320h32l10.7 21.3 .2 .3zM210.3 400H48V112H592V400H429.7L378.9 298.5 365.7 272H336 304 274.3l-13.3 26.5L210.3 400zM224 240A64 64 0 1 0 96 240a64 64 0 1 0 128 0zm256 64a64 64 0 1 0 0-128 64 64 0 1 0 0 128z"/></svg>
